triphouse/images/communicate.svg

<svg width="84" height="84" viewBox="0 0 84 84" fill="none" xmlns="http://www.w3.org/2000/svg">
<path d="M54.5002 8.66667V37.8333H13.5418L8.66683 42.7083V8.66667H54.5002ZM58.6668 0.333334H4.50016C2.2085 0.333334 0.333496 2.20833 0.333496 4.5V62.8333L17.0002 46.1667H58.6668C60.9585 46.1667 62.8335 44.2917 62.8335 42V4.5C62.8335 2.20833 60.9585 0.333334 58.6668 0.333334ZM79.5002 17H71.1668V54.5H17.0002V62.8333C17.0002 65.125 18.8752 67 21.1668 67H67.0002L83.6668 83.6667V21.1667C83.6668 18.875 81.7918 17 79.5002 17Z" fill="#3077C6"/>
</svg>

<svg width="84" height="84" fill="none" xmlns="http://www.w3.org/2000/svg"><path d="M54.5 8.667v29.166H13.542l-4.875 4.875V8.667H54.5zM58.667.333H4.5A4.179 4.179 0 00.333 4.5v58.333L17 46.167h41.667A4.179 4.179 0 0062.833 42V4.5A4.179 4.179 0 0058.668.333zM79.5 17h-8.333v37.5H17v8.333A4.179 4.179 0 0021.167 67H67l16.667 16.667v-62.5A4.179 4.179 0 0079.5 17z" fill="#3077C6"/></svg>
